public/images/icon-facebook.svg

<svg width="128" height="128" viewBox="0 0 128 128" fill="none" xmlns="http://www.w3.org/2000/svg">
<path d="M128 112C128 120.8 120.8 128 112 128H16C7.2 128 0 120.8 0 112V16C0 7.2 7.2 0 16 0H112C120.8 0 128 7.2 128 16V112Z" fill="#3C579E"/>
<path d="M68.8772 128V78.188H51.0972V60.425H68.8812V44.029C68.8812 27.492 78.6452 17.75 93.3952 17.75C100.463 17.75 106.229 18.506 108 18.741V37.314L96.1262 37.309C88.1042 37.309 86.6032 41.288 86.6032 46.881V60.425H107.159L104.255 78.188H86.6032V128H68.8772Z" fill="white"/>
</svg>

<?xml version="1.0" ?><!DOCTYPE svg  PUBLIC '-//W3C//DTD SVG 1.1//EN'  'http://www.w3.org/Graphics/SVG/1.1/DTD/svg11.dtd'><svg enable-background="new 0 0 128 128" height="128px" id="Layer_1" version="1.1" viewBox="0 0 128 128" width="128px" xml:space="preserve" xmlns="http://www.w3.org/2000/svg" xmlns:xlink="http://www.w3.org/1999/xlink"><path d="M128,112c0,8.8-7.2,16-16,16H16c-8.8,0-16-7.2-16-16V16C0,7.2,7.2,0,16,0h96c8.8,0,16,7.2,16,16V112z" fill="#3C579E"/><path d="M68.877,128V78.188h-17.78V60.425h17.784V44.029c0-16.537,9.764-26.279,24.514-26.279  c7.068,0,12.834,0.756,14.605,0.991v18.573l-11.874-0.005c-8.022,0-9.523,3.979-9.523,9.572v13.544h20.556l-2.904,17.763H86.603V128  H68.877z" fill="#FFFFFF"/></svg>
